svgs/sharp-regular/barcode-read.svg

<svg xmlns="http://www.w3.org/2000/svg" viewBox="0 0 576 512"><!--! Font Awesome Pro 6.6.0 by @fontawesome - https://fontawesome.com License - https://fontawesome.com/license (Commercial License) Copyright 2024 Fonticons, Inc. --><path d="M0 0L24 0 136 0l24 0 0 48-24 0L48 48l0 88 0 24L0 160l0-24L0 24 0 0zM144 128l0 256-48 0 0-256 48 0zm32 0l32 0 0 256-32 0 0-256zm272 0l32 0 0 256-32 0 0-256zm-208 0l48 0 0 256-48 0 0-256zm176 0l0 256-48 0 0-256 48 0zM552 0l24 0 0 24 0 112 0 24-48 0 0-24 0-88-88 0-24 0 0-48 24 0L552 0zM0 512l0-24L0 376l0-24 48 0 0 24 0 88 88 0 24 0 0 48-24 0L24 512 0 512zm552 0l-112 0-24 0 0-48 24 0 88 0 0-88 0-24 48 0 0 24 0 112 0 24-24 0z"/></svg>

<svg xmlns="http://www.w3.org/2000/svg" viewBox="0 0 576 512"><!--! Font Awesome Pro 6.4.0 by @fontawesome - https://fontawesome.com License - https://fontawesome.com/license (Commercial License) Copyright 2023 Fonticons, Inc. --><path d="M0 0H24 136h24V48H136 48v88 24H0V136 24 0zM144 128V384H96V128h48zm32 0h32V384H176V128zm272 0h32V384H448V128zm-208 0h48V384H240V128zm176 0V384H368V128h48zM552 0h24V24 136v24H528V136 48H440 416V0h24H552zM0 512V488 376 352H48v24 88h88 24v48H136 24 0zm552 0H440 416V464h24 88V376 352h48v24V488v24H552z"/></svg>
